packages/tokens/icons/thumbsUpFilled/size24Px.svg

<svg viewBox="0 0 24 24" fill="none" xmlns="http://www.w3.org/2000/svg" width="1em" height="1em"><path fill-rule="evenodd" clip-rule="evenodd" d="M9.80006 7.35933C9.10492 8.31275 8.35995 8.87336 7.7214 8.98117C7.37299 8.39377 6.73248 8 6 8H3C2.44772 8 2 8.44771 2 9L2 18C2 18.5523 2.44772 19 3 19H6C6.70945 19 7.33262 18.6306 7.68768 18.0737L10.5935 18.9037C10.8167 18.9675 11.0478 18.9998 11.2799 18.9999L14.6457 19.0001C14.6526 19.0004 14.6596 19.0005 14.6667 19.0005H18.25C19.2165 19.0005 20 18.217 20 17.2505C20 16.9484 19.9234 16.6641 19.7886 16.4161C20.4916 16.1889 21 15.5291 21 14.7505C21 14.3723 20.88 14.022 20.6759 13.7358C21.1708 13.4266 21.5 12.877 21.5 12.2505C21.5 11.8723 21.38 11.522 21.1759 11.2358C21.6708 10.9266 22 10.377 22 9.75054C22 8.78404 21.2165 8.00054 20.25 8.00054L14.1496 8.00054L14.8239 5.45269C14.9408 5.01066 15.0001 4.55535 15 4.0981L15 3.74992C15 2.78335 14.2164 1.99985 13.2498 2C12.269 2.00015 11.547 2.78763 11.3893 3.6526C11.1518 4.95452 10.5549 6.3241 9.80006 7.35933Z" fill="currentColor"/></svg>

<svg xmlns="http://www.w3.org/2000/svg" fill="none" viewBox="0 0 24 24" width="1em" height="1em"><path fill="currentColor" fill-rule="evenodd" d="M9.8 7.36c-.695.953-1.44 1.513-2.079 1.621A1.999 1.999 0 0 0 6 8H3a1 1 0 0 0-1 1v9a1 1 0 0 0 1 1h3a2 2 0 0 0 1.688-.926l2.906.83c.223.064.454.096.686.096h6.97a1.75 1.75 0 0 0 1.539-2.584 1.75 1.75 0 0 0 .887-2.68 1.749 1.749 0 0 0 .5-2.5A1.749 1.749 0 0 0 20.25 8h-6.1l.674-2.548c.117-.442.176-.898.176-1.355V3.75A1.75 1.75 0 0 0 13.25 2c-.981 0-1.703.788-1.86 1.653A9.447 9.447 0 0 1 9.8 7.359Z" clip-rule="evenodd"/></svg>
